ALY_Tests/ALY_Button_Style/ALY_Button_Style/Assets/Icons/AlertLateButtonIcon.svg

<?xml version="1.0" encoding="UTF-8" standalone="no"?>
<svg
   overflow="visible"
   version="1.1"
   id="svg748"
   xmlns="http://www.w3.org/2000/svg"
   xmlns:svg="http://www.w3.org/2000/svg">
  <defs
     id="defs752" />
  <svg
     width="25"
     height="25"
     version="1.1"
     id="svg746">
    <svg
       width="25"
       height="25"
       version="1.1"
       id="svg740">
      <ellipse
         rx="12.5"
         ry="12.5"
         fill="#FFFFFF"
         id="ellipse736" />
      <path
         d="M 73.7918,0.00469971L 74.1594,0L 74.1594,0C 93.0776,0.241333 113.22,8.40674 126.598,21.8879C 139.976,35.3691 148.079,55.6662 148.319,74.7299L 148.319,74.7299C 148.079,93.7936 139.976,114.091 126.598,127.572C 113.22,141.053 93.0776,149.218 74.1594,149.46L 74.1594,149.46C 55.2412,149.218 35.0988,141.053 21.7208,127.572C 8.34274,114.091 0.23938,93.7936 0,74.7299L 0,74.7299C 0.23938,55.6662 8.34274,35.3693 21.7208,21.8879C 35.0988,8.40656 55.2412,0.241333 74.1594,0L 74.237,0.000976563L 74.2185,18.1443L 74.1594,18.1436L 74.1594,18.1436C 59.8343,18.326 44.5823,24.5092 34.4523,34.7174C 24.3223,44.9256 18.1862,60.2946 18.0051,74.7299L 18.0051,74.7299C 18.1862,89.1652 24.3223,104.534 34.4523,114.742C 44.5823,124.951 59.8343,131.134 74.1594,131.316L 74.1594,131.316C 88.4845,131.134 103.736,124.951 113.867,114.742C 123.997,104.534 130.133,89.1652 130.314,74.7299L 130.314,74.7299C 130.133,60.2946 123.997,44.9255 113.867,34.7174C 103.736,24.5093 88.4845,18.326 74.1594,18.1436L 73.8795,18.1472L 73.7918,0.00469971 Z "
         fill-rule="nonzero"
         fill="Red"
         id="path738" />
    </svg>
    <svg
       width="5"
       height="10"
       version="1.1"
       id="svg744">
      <path
         d="M 16.9195,0L 15.9242,43.606L 2.98575,43.606L 0.995239,0L 16.9195,0 Z M 9.50165,64.5004C 6.7543,64.5004 4.48383,63.7883 2.69031,62.3641C 0.896759,60.9399 -6.10352e-005,59.2153 -6.10352e-005,57.1902C -6.10352e-005,55.0704 0.904541,53.3364 2.71362,51.9879C 4.52274,50.6394 6.7854,49.9651 9.50165,49.9651C 12.2593,49.9651 14.5168,50.6488 16.2741,52.0162C 18.0314,53.3837 18.91,55.1083 18.91,57.1902C 18.91,59.3005 18.0391,61.0464 16.2974,62.428C 14.5557,63.8096 12.2904,64.5004 9.50165,64.5004 Z "
         fill-rule="nonzero"
         fill="#FF0000"
         id="path742" />
    </svg>
  </svg>
</svg>

<svg xmlns="http://www.w3.org/2000/svg" id="alertLateButtonIcon" viewBox="0 0 148.32 149.46">
    <circle cx="75" cy="75" fill="#FFFFFF" r="58" />
    <path
        d="m73.792 0.0046997 0.3676-0.0046997c18.918 0.24133 39.061 8.4067 52.439 21.888 13.378 13.481 21.481 33.778 21.721 52.842-0.24 19.064-8.343 39.361-21.721 52.842s-33.52 21.646-52.439 21.888c-18.918-0.242-39.061-8.407-52.439-21.888-13.378-13.481-21.481-33.778-21.721-52.842 0.23938-19.064 8.3427-39.361 21.721-52.842 13.378-13.481 33.52-21.647 52.439-21.888l0.0776 9.7656e-4 -0.0185 18.143-0.0591-7e-4c-14.325 0.1824-29.577 6.3656-39.707 16.574s-16.266 25.577-16.447 40.012c0.1811 14.435 6.3172 29.804 16.447 40.012 10.13 10.209 25.382 16.392 39.707 16.574 14.325-0.182 29.577-6.365 39.708-16.574 10.13-10.208 16.266-25.577 16.447-40.012-0.181-14.435-6.317-29.804-16.447-40.012-10.131-10.208-25.382-16.391-39.708-16.574l-0.2799 0.0036z"
        fill="#ff0000" />
    <path
        d="m81.679 45.839-0.9953 43.606h-12.938l-1.9905-43.606zm-7.4178 64.5c-2.7474 0-5.0178-0.7121-6.8113-2.1363-1.7936-1.4242-2.6904-3.1488-2.6904-5.1739 0-2.1198 0.9046-3.8538 2.7137-5.2023 1.8091-1.3485 4.0718-2.0228 6.788-2.0228 2.7576 0 5.0152 0.6837 6.7724 2.0511 1.7573 1.3675 2.6359 3.0921 2.6359 5.174 0 2.1103-0.8709 3.8562-2.6126 5.2378s-4.007 2.0724-6.7958 2.0724z"
        fill="#ff0000" />
</svg>
